X:1
T:Title
%%score ( 1 2 ) { 3 | 4 }
L:1/8
Q:1/4=103
M:9/8
K:C
V:1 treble nm="Grand Piano, Soprano"
V:2 treble 
V:3 treble nm="Choir Pad, No Shelter but in Christ"
V:4 bass 
V:1
 [EG] [_E^F]2 [=EG] [Ec]2- [Ec]3 | [CE] [EG]2 [_E^F] [D=F]2- [DF]3- | %2
w: By~John~Robson~Sweney * * * *||
 [DF] [DF]2- [DF] [FB]2- [FB]3 | [FA] [DF]2 [_E^F] [=EG]2- [EG]2- [EG]/ z/ | %4
w: ||
 [EG] [_E^F]2 [=EG] [Ge]2- [Ge]3 | [Fd] [Ec]2 [GB] [FA]2- [FA]3- | %6
w: ||
 [FA] [_EA]2- [EA] [=EG]2- [EG]3 | z9 | z3 z d2- d/ z/ z z | [FB][FB][FA] [FG] [EG]2 [Ec] [EG]2- | %10
w: ||||
 [EG] E2- E/ z/ A2- A3/2 z/ D | E F2 [CF] [B,E]2- [B,E]2- [B,E]/ z/ | z3 z c2- c/ z/ z z | %13
w: |||
 [Ac][Ac][GB] [FA] [EG]2- [EG]3- | [EG] [Ec]2 [Fd] [Ge]2- [Ge]2 [Ec] | %15
w: ||
 [CE]G[^FA] [=FB] [Ec]2- [Ec]3- | [Ec]3 z3 z3 |] %17
w: ||
V:2
 x9 | x9 | x9 | x9 | x9 | x9 | x9 | [Gc] [Fc]2 [FB] [Ec]2- [Ec]3- | [Ec] [Ec]2- [Ec] F2 F[Fd][Fc] | %9
 x9 | x9 | x9 | EEA [EB]EE E[Ec][Ac] | x9 | x9 | x9 | x9 |] %17
V:3
 C C2 C G,2- G,3 | G, C2 C[K:bass] B,2- B,3- | B, B,2- B,[K:treble] D2- D3 | %3
 C B,2 B, C2- C2- C/ z/ | C C2 C C2- C3 | G, G,2 C C2- C3- | C C2- C C2- C3 | %7
 E D2[K:bass] G, G,2- G,3- | G, G,2- G, B,2 B,B,[K:treble]E | DDC B, C2 G, C2- | %10
 C[K:bass] E,2- E,/ z/ A,2- A,3/2 z/ D, | E, F,2 A, ^G,2- G,2- G,/ z/ | z3 ^G,A,A, A, A,2- | %13
 A,[K:treble] C2 CCC C C2- | C[K:bass] G,2 G, C2- C2 G, | G,B,[K:treble]C D C2- C3- | C3 z3 z3 |] %17
V:4
 C, C,2 C, C,2- C,3 | C, C,2 C, G,2- G,3- | G, G,2- G, G,2- G,3 | G, G,2 G, C,2- C,2- C,/ z/ | %4
 C, C,2 C, C,2- C,3 | C, C,2 E, F,2- F,3- | F, ^F,2- F, G,2- G,3 | G, G,2 G,, C,2- C,3- | %8
 C, C,2- C, G,2 G,G,G, | G,G,G, G, C,2 C, C,2- | C,3 z3 z3 | z3 _E, =E,2- E,2- E,/ z/ | %12
 z3 .E,3 z3 | z F,2 F,C,C, C, C,2- | C, C,2 C, C,2- C,2 C, | C, G,2 [G,,G,] C,2- C,3- | %16
 C,3 z3 z3 |] %17

